svgs/light/car-side.svg

<svg xmlns="http://www.w3.org/2000/svg" viewBox="0 0 640 512"><!-- Font Awesome Pro 6.0.0-alpha2 by @fontawesome - https://fontawesome.com License - https://fontawesome.com/license (Commercial License) --><path d="M520 224L411.301 88.062C399.141 72.854 380.725 64 361.25 64H155.375C129.125 64 105.625 79.875 95.875 104.25L48 226.25C20.5 233.375 0 258.25 0 288V400C0 417.674 14.328 432 32 432H65.613C73.266 477.363 112.461 512 160 512S246.734 477.363 254.387 432H385.613C393.266 477.363 432.461 512 480 512S566.734 477.363 574.387 432H608C625.674 432 640 417.674 640 400V344C640 277.727 586.275 224 520 224ZM361.25 96C371.055 96 380.188 100.391 386.309 108.047L479.027 224H256V96H361.25ZM125.586 116.135C130.479 103.904 142.172 96 155.375 96H224V224H83.26L125.586 116.135ZM160 480C124.711 480 96 451.289 96 416S124.711 352 160 352S224 380.711 224 416S195.289 480 160 480ZM480 480C444.711 480 416 451.289 416 416S444.711 352 480 352S544 380.711 544 416S515.289 480 480 480ZM608 400H574.387C566.734 354.637 527.539 320 480 320S393.266 354.637 385.613 400H254.387C246.734 354.637 207.539 320 160 320S73.266 354.637 65.613 400H32V288C32 270.326 46.326 256 64 256H520C568.602 256 608 295.398 608 344V400Z"/></svg>

<svg xmlns="http://www.w3.org/2000/svg" viewBox="0 0 640 512"><!--! Font Awesome Pro 6.0.0-alpha3 by @fontawesome - https://fontawesome.com License - https://fontawesome.com/license (Commercial License) --><path d="M520 224l-108.7-135.9C399.1 72.85 380.7 64 361.3 64H155.4c-26.25 0-49.75 15.88-59.5 40.25L48 226.3C20.5 233.4 0 258.3 0 288v112c0 17.67 14.33 32 32 32h33.61C73.27 477.4 112.5 512 160 512s86.73-34.64 94.39-80h131.2C393.3 477.4 432.5 512 480 512s86.73-34.64 94.39-80H608c17.67 0 32-14.33 32-32v-56C640 277.7 586.3 224 520 224zM361.3 96c9.805 0 18.94 4.391 25.06 12.05L479 224H256V96H361.3zM125.6 116.1C130.5 103.9 142.2 96 155.4 96H224v128H83.26L125.6 116.1zM160 480c-35.29 0-64-28.71-64-64s28.71-64 64-64s64 28.71 64 64S195.3 480 160 480zM480 480c-35.29 0-64-28.71-64-64s28.71-64 64-64s64 28.71 64 64S515.3 480 480 480zM608 400h-33.61C566.7 354.6 527.5 320 480 320s-86.73 34.64-94.39 80H254.4C246.7 354.6 207.5 320 160 320s-86.73 34.64-94.39 80H32V288c0-17.67 14.33-32 32-32h456C568.6 256 608 295.4 608 344V400z"/></svg>
